!!!ONR: No. 1
!! Transcription 1 (LF 79.7)
!!!OTL: Due/rmase, Nin~a, que tengo que hacer
!!!SINGER: Marcelina Sa/nchez Pimientel
!!!PLACE: South America, Colombia, Evitar
!!!DATE 1964 November 1
!! From George List, "Music and Poetry in a Colombian Village:
!! A Tri-Cultural Heritage"
!! Bloomington, Indiana: Indiana University Press, 1983
**kern
*clefG2
*k[]
*M2/2
*MM144
*>verse 1
=1-
{4g
8b
8dd
4cc
8cc
8cc
=
4b
8g
16e
16e
4d}
4r
=
{4g
8b
8dd
4cc
8a
8cc
=
4b
8g
16e
16e
8d}
8r
8r
{8d
=
4g
8g
8g
4a
8a
8dd
=
4b
16g
16g
8e
8d}
8r
8r
{8d
=
4g
8g
8g
4a
8a
8a
=
4b
16g
16g
8e
8d}
8r
4r
*>verse 2
=
{4g
8b
8dd
4cc
4dd
=
4b
16g
8.e
4e
4d}
=
{4g
8b
8dd
4cc
4dd
=
4b
16g
8.e
4e
4d}
=
{4g
8g
8g
4a
4a
=
4b
8g
8e
4e
4d}
=
4r
{8g
8g
4a
4a
=
4b
8g
8e
4e}
4r
*>verse 3
=
{4g
8b
8dd
4cc
4dd
=
4b
8g
16e
16e
4e
4d}
=
{4g
8b
8dd
4cc
4dd
=
4b
8g
16e
16e
8d}
8r
4r
=
{4g
8g
8g
4a
4a
=
4b
8g
8e
4e
4d}
=
{4g
8g
8g
4a
4a
=
4b
8g
8e
8d}
8r
4r
*>verse 4
=
{4g
8b
8dd
4cc
8cc
8dd
=
4b
8g
16ee
16ee
4d}
4r
=
{4g
8b
8dd
4cc
8cc
8dd
=
4b
8g
16e
16e
8d}
8r
8r
{8d
=
8g
4g
8g
4a
8a
8dd
=
4b
16g
16g
8e
8d}
8r
8r
{8d
=
4g
8g
8g
4a
8a
8dd
=
4b
16g
16g
8e
4d}
4r
*>verse 5
=
{4g
8b
8dd
4cc
4dd
=
4b
8g
8e
4d}
4r
=
{4g
8b
8dd
4cc
4dd
=
4b
8g
8e
4d}
4r
=
{4g
8g
8g
4a
4a
=
4b
8g
8e
4d}
4r
*>verse 6
=
{4g
8b
8dd
8cc
4a
8cc
=
8b
4g
16e
16e
4d}
4r
=
{8g
4b
8dd
8cc
4cc
8dd
=
8b
4g
16e
16e
8d}
8r
8r
{8d
=
8g
4g
8g
4a
8a
8dd
=
4b
16g
16g
8e
8d}
8r
8r
{8d
=
4g
8g
8g
4a
8a
8a
=
4b
16g
16g
8e
8d}
8r
4r
*>verse 7
=
{4g
8b
8dd
4cc
4dd
=
4b
8g
8e
4e
8d}
8r
=
{4g
8b
8dd
4cc
4dd
=
4b
8g
8e
4e
4d}
=
{4g
8g
8g
4a
4a
=
4b
8g
8e
4e
4d}
=
{4g
8g
8g
4a
4a
=
4b
8g
8e
4e
8d}
8r
==
*-
